icons/responsive.svg

<svg width="24" height="24" viewBox="0 0 24 24" fill="none" xmlns="http://www.w3.org/2000/svg">
<path fill-rule="evenodd" clip-rule="evenodd" d="M6.90002 3.19995C5.45938 3.19995 4.35004 4.36267 4.35004 5.84995V9.43902C3.15239 9.64997 2.25 10.6894 2.25 11.9499V18.2499C2.25 19.6641 3.38577 20.7999 4.79999 20.7999H9.10004C9.82241 20.7999 10.4822 20.4784 10.9429 20.0177C11.2636 19.6969 11.5196 19.2746 11.6162 18.7999H19.2C20.6407 18.7999 21.75 17.6372 21.75 16.1499V5.84995C21.75 4.48905 20.6656 3.19995 19.2 3.19995H6.90002ZM11.65 17.2999H19.2C19.7594 17.2999 20.25 16.8627 20.25 16.1499V5.84995C20.25 5.21084 19.7344 4.69995 19.2 4.69995H6.90002C6.34067 4.69995 5.85004 5.13722 5.85004 5.84995V9.3999H9.10004C10.5143 9.3999 11.65 10.5357 11.65 11.9499V17.2999ZM3.75 11.9499C3.75 11.3641 4.21422 10.8999 4.79999 10.8999H9.10004C9.68581 10.8999 10.15 11.3641 10.15 11.9499V18.2914L10.1546 18.3327C10.1737 18.5045 10.0994 18.7399 9.8822 18.9571C9.66785 19.1714 9.37767 19.2999 9.10004 19.2999H4.79999C4.2142 19.2999 3.75 18.8357 3.75 18.2499V11.9499Z" fill="black"/>
</svg>

<svg xmlns="http://www.w3.org/2000/svg" fill="none" viewBox="0 0 24 24">
  <path fill="#000" fill-rule="evenodd" d="M6.9 3.2c-1.44 0-2.55 1.163-2.55 2.65v3.589a2.542 2.542 0 0 0-2.1 2.51v6.3A2.542 2.542 0 0 0 4.8 20.8h4.3c.722 0 1.382-.32 1.843-.781.32-.321.577-.743.673-1.218H19.2c1.44 0 2.55-1.163 2.55-2.65V5.85c0-1.36-1.084-2.65-2.55-2.65H6.9Zm4.75 14.1h7.55c.56 0 1.05-.437 1.05-1.15V5.85c0-.64-.516-1.15-1.05-1.15H6.9c-.56 0-1.05.437-1.05 1.15V9.4H9.1a2.542 2.542 0 0 1 2.55 2.55v5.35Zm-7.9-5.35c0-.586.464-1.05 1.05-1.05h4.3c.586 0 1.05.464 1.05 1.05v6.341l.005.042c.019.172-.056.407-.273.624a1.138 1.138 0 0 1-.782.343H4.8c-.586 0-1.05-.464-1.05-1.05v-6.3Z" clip-rule="evenodd"/>
</svg>
